flaticon/army-badges/medal-9.svg

<svg xmlns="http://www.w3.org/2000/svg" width="32" height="32" viewBox="0 0 24 24">
    <path d="M 22.515625 17.597656 L 23.917969 15.878906 C 23.996094 15.757812 24.035156 15.558594 23.957031 15.4375 C 23.875 15.277344 23.757812 15.199219 23.597656 15.199219 L 20.796875 15.199219 L 20.796875 14 C 20.796875 13.757812 20.636719 13.597656 20.398438 13.597656 L 19.878906 13.597656 C 20.039062 13.449219 20.1875 13.289062 20.316406 13.121094 C 20.597656 12.800781 20.835938 12.398438 20.996094 12 L 22.011719 9.433594 C 22.039062 9.394531 22.058594 9.347656 22.066406 9.292969 L 22.636719 7.855469 C 22.675781 7.804688 22.703125 7.738281 22.710938 7.667969 L 23.265625 6.273438 C 23.316406 6.210938 23.347656 6.132812 23.355469 6.042969 L 23.957031 4.523438 C 23.996094 4.402344 23.996094 4.28125 23.917969 4.164062 C 23.835938 4.082031 23.714844 4.003906 23.597656 4.003906 L 17.597656 4.003906 C 17.4375 4.003906 17.320312 4.082031 17.238281 4.242188 L 16.035156 6.359375 C 14.96875 5.390625 13.554688 4.800781 12 4.800781 C 10.453125 4.800781 9.042969 5.386719 7.980469 6.34375 L 6.761719 4.203125 C 6.679688 4.082031 6.5625 4.003906 6.402344 4.003906 L 0.402344 4.003906 C 0.285156 4.003906 0.164062 4.121094 0.0820312 4.203125 C 0.00390625 4.28125 -0.0351562 4.441406 0.0429688 4.5625 L 0.652344 6.089844 C 0.660156 6.144531 0.683594 6.195312 0.710938 6.238281 L 1.296875 7.707031 C 1.304688 7.75 1.320312 7.789062 1.339844 7.824219 L 1.941406 9.328125 C 1.949219 9.355469 1.957031 9.382812 1.96875 9.40625 L 3.003906 12 C 3.164062 12.398438 3.402344 12.800781 3.683594 13.121094 C 3.8125 13.289062 3.960938 13.449219 4.121094 13.601562 L 3.601562 13.601562 C 3.363281 13.601562 3.203125 13.757812 3.203125 14 L 3.203125 15.199219 L 0.402344 15.199219 C 0.242188 15.199219 0.125 15.320312 0.0429688 15.398438 C -0.0351562 15.558594 0.00390625 15.71875 0.0820312 15.839844 L 1.484375 17.597656 L 0.0820312 19.316406 C 0.00390625 19.4375 -0.0351562 19.636719 0.0429688 19.757812 C 0.125 19.917969 0.242188 19.996094 0.402344 19.996094 L 4.800781 19.996094 C 5.042969 19.996094 5.203125 19.835938 5.203125 19.597656 L 5.203125 18.398438 L 18.796875 18.398438 L 18.796875 19.597656 C 18.796875 19.835938 18.957031 19.996094 19.199219 19.996094 L 23.597656 19.996094 C 23.757812 19.996094 23.875 19.917969 23.957031 19.796875 C 24.035156 19.636719 23.996094 19.476562 23.917969 19.359375 Z M 17.839844 4.800781 L 22.996094 4.800781 L 22.683594 5.601562 L 20.796875 5.601562 C 20.558594 5.601562 20.398438 5.761719 20.398438 6 C 20.398438 6.242188 20.558594 6.402344 20.796875 6.402344 L 22.367188 6.402344 L 22.054688 7.203125 L 20.398438 7.203125 C 20.15625 7.203125 19.996094 7.363281 19.996094 7.601562 C 19.996094 7.839844 20.15625 8 20.398438 8 L 21.738281 8 L 21.425781 8.800781 L 19.597656 8.800781 C 19.359375 8.800781 19.199219 8.960938 19.199219 9.199219 C 19.199219 9.441406 19.359375 9.601562 19.597656 9.601562 L 21.109375 9.601562 L 20.277344 11.71875 C 20.117188 12.039062 19.957031 12.359375 19.71875 12.640625 C 19.398438 13.039062 18.996094 13.359375 18.519531 13.597656 L 17.320312 13.597656 C 17.554688 13.148438 17.730469 12.667969 17.847656 12.160156 C 17.847656 12.160156 17.847656 12.15625 17.847656 12.15625 C 17.859375 12.09375 17.875 12.03125 17.886719 11.96875 C 17.890625 11.953125 17.890625 11.9375 17.894531 11.925781 C 17.90625 11.863281 17.917969 11.804688 17.925781 11.742188 C 17.929688 11.707031 17.9375 11.671875 17.941406 11.636719 C 17.945312 11.597656 17.953125 11.5625 17.957031 11.523438 C 17.960938 11.488281 17.964844 11.453125 17.964844 11.417969 C 17.96875 11.382812 17.972656 11.347656 17.976562 11.3125 C 17.980469 11.28125 17.980469 11.25 17.984375 11.214844 C 17.988281 11.171875 17.988281 11.132812 17.992188 11.089844 C 17.992188 11.0625 17.992188 11.035156 17.996094 11.011719 C 17.996094 10.941406 18 10.871094 18 10.800781 C 18 10.753906 17.996094 10.703125 17.996094 10.65625 C 17.996094 10.640625 17.996094 10.621094 17.996094 10.605469 C 17.992188 10.574219 17.992188 10.542969 17.992188 10.515625 C 17.988281 10.492188 17.988281 10.472656 17.988281 10.453125 C 17.988281 10.425781 17.984375 10.398438 17.984375 10.375 C 17.980469 10.351562 17.980469 10.328125 17.976562 10.304688 C 17.976562 10.28125 17.972656 10.257812 17.972656 10.234375 C 17.96875 10.210938 17.96875 10.1875 17.964844 10.160156 C 17.960938 10.140625 17.960938 10.121094 17.957031 10.101562 C 17.953125 10.074219 17.953125 10.046875 17.949219 10.019531 C 17.949219 10.019531 17.949219 10.015625 17.945312 10.015625 C 17.9375 9.929688 17.921875 9.847656 17.910156 9.765625 C 17.910156 9.765625 17.910156 9.761719 17.910156 9.761719 C 17.902344 9.726562 17.894531 9.6875 17.886719 9.652344 C 17.886719 9.644531 17.886719 9.636719 17.882812 9.628906 C 17.875 9.59375 17.871094 9.554688 17.863281 9.519531 C 17.859375 9.511719 17.859375 9.503906 17.855469 9.496094 C 17.847656 9.460938 17.839844 9.421875 17.832031 9.386719 C 17.828125 9.382812 17.828125 9.378906 17.828125 9.375 C 17.609375 8.46875 17.183594 7.644531 16.605469 6.953125 Z M 12.039062 5.601562 C 13.464844 5.601562 14.75 6.167969 15.6875 7.09375 C 15.699219 7.179688 15.738281 7.261719 15.796875 7.320312 C 16.71875 8.28125 17.199219 9.519531 17.199219 10.839844 C 17.199219 11.53125 17.054688 12.226562 16.785156 12.871094 C 16.671875 13.121094 16.542969 13.367188 16.398438 13.597656 L 13.09375 13.597656 L 13.398438 13.199219 L 15.199219 13.199219 C 15.359375 13.199219 15.4375 13.121094 15.519531 13 C 15.597656 12.878906 15.597656 12.71875 15.519531 12.601562 L 14.558594 10.800781 L 15.558594 9 C 15.640625 8.882812 15.640625 8.722656 15.558594 8.601562 C 15.480469 8.480469 15.359375 8.402344 15.199219 8.402344 L 13.398438 8.402344 L 12.320312 6.960938 C 12.238281 6.839844 12.121094 6.800781 12 6.800781 C 11.878906 6.800781 11.761719 6.882812 11.679688 6.960938 L 10.601562 8.402344 L 8.800781 8.402344 C 8.640625 8.402344 8.519531 8.480469 8.441406 8.601562 C 8.359375 8.722656 8.359375 8.882812 8.441406 9 L 9.402344 10.800781 L 8.441406 12.601562 C 8.359375 12.71875 8.359375 12.878906 8.441406 13 C 8.519531 13.121094 8.640625 13.199219 8.800781 13.199219 L 10.601562 13.199219 L 10.90625 13.597656 L 7.640625 13.597656 C 7.082031 12.757812 6.800781 11.800781 6.839844 10.800781 C 6.839844 7.921875 9.160156 5.601562 12.039062 5.601562 Z M 11.121094 12.558594 C 11.039062 12.441406 10.921875 12.398438 10.800781 12.398438 L 9.480469 12.398438 L 10.242188 10.960938 C 10.320312 10.839844 10.320312 10.71875 10.242188 10.601562 L 9.480469 9.199219 L 10.800781 9.199219 C 10.921875 9.199219 11.039062 9.160156 11.121094 9.039062 L 12 7.882812 L 12.878906 9.082031 C 12.960938 9.199219 13.078125 9.242188 13.199219 9.242188 L 14.558594 9.242188 L 13.800781 10.640625 C 13.71875 10.71875 13.71875 10.878906 13.800781 11 L 14.558594 12.398438 L 13.238281 12.398438 C 13.121094 12.398438 13 12.441406 12.917969 12.558594 L 12.121094 13.597656 L 11.921875 13.597656 Z M 4.324219 12.601562 C 4.082031 12.320312 3.882812 12 3.761719 11.679688 L 2.929688 9.601562 L 4.402344 9.601562 C 4.640625 9.601562 4.800781 9.441406 4.800781 9.199219 C 4.800781 8.960938 4.640625 8.800781 4.402344 8.800781 L 2.609375 8.800781 L 2.285156 8 L 3.601562 8 C 3.84375 8 4.003906 7.839844 4.003906 7.601562 C 4.003906 7.363281 3.84375 7.203125 3.601562 7.203125 L 1.964844 7.203125 L 1.644531 6.402344 L 3.203125 6.402344 C 3.441406 6.402344 3.601562 6.242188 3.601562 6 C 3.601562 5.761719 3.441406 5.601562 3.203125 5.601562 L 1.324219 5.601562 L 1.003906 4.800781 L 6.160156 4.800781 L 7.394531 6.953125 C 6.816406 7.644531 6.390625 8.46875 6.171875 9.375 C 6.171875 9.378906 6.171875 9.382812 6.167969 9.386719 C 6.160156 9.425781 6.152344 9.460938 6.144531 9.496094 C 6.140625 9.503906 6.140625 9.511719 6.136719 9.519531 C 6.128906 9.558594 6.125 9.59375 6.117188 9.628906 C 6.113281 9.636719 6.113281 9.644531 6.113281 9.652344 C 6.105469 9.6875 6.097656 9.726562 6.089844 9.761719 C 6.089844 9.761719 6.089844 9.765625 6.089844 9.765625 C 6.078125 9.847656 6.0625 9.929688 6.054688 10.015625 C 6.050781 10.015625 6.050781 10.019531 6.050781 10.019531 C 6.046875 10.046875 6.046875 10.074219 6.042969 10.101562 C 6.039062 10.121094 6.039062 10.140625 6.035156 10.160156 C 6.03125 10.1875 6.03125 10.210938 6.027344 10.234375 C 6.027344 10.257812 6.023438 10.28125 6.023438 10.304688 C 6.019531 10.328125 6.019531 10.351562 6.015625 10.375 C 6.015625 10.398438 6.011719 10.425781 6.011719 10.453125 C 6.011719 10.472656 6.011719 10.492188 6.007812 10.515625 C 6.007812 10.546875 6.007812 10.574219 6.003906 10.605469 C 6.003906 10.621094 6.003906 10.640625 6.003906 10.65625 C 6.003906 10.703125 6 10.753906 6 10.800781 C 6 10.871094 6.003906 10.941406 6.003906 11.011719 C 6.007812 11.039062 6.007812 11.066406 6.007812 11.09375 C 6.011719 11.132812 6.011719 11.171875 6.015625 11.210938 C 6.019531 11.25 6.019531 11.289062 6.023438 11.324219 C 6.027344 11.351562 6.027344 11.375 6.03125 11.398438 C 6.085938 11.988281 6.226562 12.566406 6.453125 13.105469 C 6.457031 13.121094 6.464844 13.132812 6.46875 13.148438 C 6.488281 13.1875 6.503906 13.226562 6.519531 13.265625 C 6.570312 13.378906 6.625 13.492188 6.683594 13.601562 L 5.480469 13.601562 C 5.042969 13.359375 4.601562 13.039062 4.324219 12.601562 Z M 4.003906 14.398438 L 19.996094 14.398438 L 19.996094 17.597656 L 4.003906 17.597656 Z M 4.402344 19.199219 L 1.242188 19.199219 L 2.324219 17.839844 C 2.441406 17.71875 2.441406 17.519531 2.324219 17.359375 L 1.242188 16 L 3.203125 16 L 3.203125 18 C 3.203125 18.238281 3.363281 18.398438 3.601562 18.398438 L 4.402344 18.398438 Z M 19.597656 19.199219 L 19.597656 18.398438 L 20.398438 18.398438 C 20.636719 18.398438 20.796875 18.238281 20.796875 18 L 20.796875 16 L 22.757812 16 L 21.675781 17.359375 C 21.558594 17.476562 21.558594 17.679688 21.675781 17.839844 L 22.757812 19.199219 Z M 19.597656 19.199219"/>
</svg>

<svg xmlns="http://www.w3.org/2000/svg" width="32" height="32" viewBox="0 0 24 24">
    <path d="M22.516 17.598l1.402-1.72c.078-.12.117-.32.039-.44-.082-.16-.2-.239-.36-.239h-2.8V14c0-.242-.16-.402-.399-.402h-.52c.161-.149.31-.309.438-.477.282-.32.52-.723.68-1.121l1.016-2.566a.322.322 0 0 0 .054-.141l.57-1.438a.38.38 0 0 0 .075-.187l.555-1.395a.417.417 0 0 0 .09-.23l.601-1.52a.394.394 0 0 0-.039-.359c-.082-.082-.203-.16-.32-.16h-6c-.16 0-.278.078-.36.238L16.035 6.36A5.978 5.978 0 0 0 12 4.801a5.989 5.989 0 0 0-4.02 1.543l-1.218-2.14a.418.418 0 0 0-.36-.2h-6c-.117 0-.238.117-.32.2a.302.302 0 0 0-.039.359l.61 1.527a.382.382 0 0 0 .058.148l.586 1.469a.382.382 0 0 0 .043.117l.601 1.504c.008.027.016.055.028.078L3.004 12c.16.398.398.8.68 1.121.128.168.277.328.437.48h-.52c-.238 0-.398.157-.398.399v1.2h-2.8c-.16 0-.278.12-.36.198a.44.44 0 0 0 .039.442l1.402 1.758-1.402 1.718c-.078.122-.117.32-.039.442.082.16.2.238.36.238H4.8c.242 0 .402-.16.402-.398v-1.2h13.594v1.2c0 .238.16.398.402.398h4.399c.16 0 .277-.078.359-.2a.432.432 0 0 0-.039-.437zM17.84 4.8h5.156l-.312.8h-1.887c-.238 0-.399.16-.399.399 0 .242.16.402.399.402h1.57l-.312.801h-1.657c-.242 0-.402.16-.402.399 0 .238.16.398.402.398h1.34l-.312.8h-1.828c-.239 0-.399.16-.399.4 0 .241.16.402.399.402h1.511l-.832 2.117c-.16.32-.32.64-.558.922-.32.398-.723.718-1.2.957H17.32c.235-.45.41-.93.528-1.438v-.004c.011-.062.027-.125.039-.187.004-.016.004-.031.008-.043.011-.063.023-.121.03-.184.005-.035.012-.07.016-.105.004-.04.012-.075.016-.114a.958.958 0 0 0 .008-.105l.012-.105c.003-.032.003-.063.007-.098.004-.043.004-.082.008-.125 0-.027 0-.055.004-.078 0-.07.004-.14.004-.211 0-.047-.004-.098-.004-.145v-.05c-.004-.032-.004-.063-.004-.09-.004-.024-.004-.043-.004-.063 0-.027-.004-.055-.004-.078-.004-.023-.004-.047-.007-.07 0-.024-.004-.047-.004-.07-.004-.024-.004-.047-.008-.075-.004-.02-.004-.039-.008-.058-.004-.028-.004-.055-.008-.082 0 0 0-.004-.004-.004-.008-.086-.023-.168-.035-.25v-.004l-.023-.11c0-.007 0-.015-.004-.023-.008-.035-.012-.074-.02-.11-.004-.007-.004-.015-.008-.023l-.023-.11c-.004-.003-.004-.007-.004-.011a5.953 5.953 0 0 0-1.223-2.422zm-5.8.8c1.425 0 2.71.567 3.648 1.493a.4.4 0 0 0 .109.226c.922.961 1.402 2.2 1.402 3.52a5.29 5.29 0 0 1-.414 2.031 6.15 6.15 0 0 1-.387.727h-3.304l.304-.399H15.2c.16 0 .239-.078.32-.199a.368.368 0 0 0 0-.398l-.96-1.801 1-1.801a.353.353 0 0 0 0-.398.413.413 0 0 0-.36-.2h-1.8L12.32 6.961A.363.363 0 0 0 12 6.8c-.121 0-.238.082-.32.16l-1.078 1.441H8.8a.413.413 0 0 0-.36.2.353.353 0 0 0 0 .398l.961 1.8-.96 1.802a.353.353 0 0 0 0 .398c.078.121.199.2.359.2h1.8l.305.398H7.641A4.676 4.676 0 0 1 6.84 10.8a5.19 5.19 0 0 1 5.2-5.2zm-.919 6.958a.372.372 0 0 0-.32-.16H9.48l.761-1.438a.305.305 0 0 0 0-.36L9.48 9.2h1.32c.122 0 .24-.039.321-.16L12 7.883l.879 1.199c.082.117.2.16.32.16h1.36l-.758 1.399c-.082.078-.082.238 0 .359l.758 1.398h-1.32a.377.377 0 0 0-.321.16l-.797 1.04h-.2zm-6.797.043a3.164 3.164 0 0 1-.562-.922L2.93 9.602h1.472c.239 0 .399-.16.399-.403 0-.238-.16-.398-.399-.398H2.61L2.285 8h1.317c.242 0 .402-.16.402-.398 0-.239-.16-.399-.402-.399H1.965l-.32-.8h1.558c.238 0 .399-.16.399-.403 0-.238-.16-.398-.399-.398H1.324l-.32-.801H6.16l1.235 2.152a5.953 5.953 0 0 0-1.223 2.422c0 .004 0 .008-.004.012l-.023.11c-.004.007-.004.015-.008.023-.008.039-.012.074-.02.109-.004.008-.004.016-.004.023l-.023.11v.004c-.012.082-.027.164-.035.25-.004 0-.004.004-.004.004-.004.027-.004.054-.008.082-.004.02-.004.039-.008.058-.004.027-.004.05-.008.074 0 .024-.004.047-.004.07-.003.024-.003.048-.007.071 0 .023-.004.05-.004.078 0 .02 0 .04-.004.063 0 .03 0 .058-.004.09v.05c0 .047-.004.098-.004.145 0 .07.004.14.004.21.004.028.004.055.004.083.004.039.004.078.008.117.004.039.004.078.007.113.004.028.004.051.008.074a5.79 5.79 0 0 0 .422 1.707c.004.016.012.028.016.043.02.04.035.079.05.118.051.113.106.226.165.336H5.48c-.437-.243-.878-.563-1.156-1zm-.32 1.796h15.992v3.2H4.004zm.398 4.801h-3.16l1.082-1.36c.117-.12.117-.32 0-.48L1.242 16h1.961v2c0 .238.16.398.399.398h.8zm15.196 0v-.8h.8c.239 0 .399-.16.399-.399v-2h1.96l-1.081 1.36c-.117.117-.117.32 0 .48l1.082 1.36zm0 0"/>
</svg>
